X: 26983
T: Miss E Purcell's Favourite
R: reel
M: 4/4
K: Dmajor
M:2/4
|:f/f/f/f/ ^ef|df A2|Ad Fd|Ad f2|
e/e/e/e/ ^de|ge c2|1 A/A/A/A/ ce|ba^g=g:|2 A/A/A/A/ ba|fe d2||
|:A/A/A/A/ df|baba|A/A/A/A/ df|ba g2|
A/A/A/A/ ce|baba|1 A/A/A/A/ ce|ba f2:|2 A/A/A/A/ ba|fe d2||

